packages/core/src/svgs/tokens/mono/OOE.svg

<svg width="24" height="24" viewBox="0 0 24 24" fill="none" xmlns="http://www.w3.org/2000/svg">
<path fill-rule="evenodd" clip-rule="evenodd" d="M19.7555 12.621C19.7759 12.3233 19.7814 12.0249 19.7721 11.7266C20.4944 11.6821 21.3777 11.4488 21.8611 11.2932C21.9021 11.2801 21.9377 11.2541 21.9628 11.2191C21.9878 11.1839 22.0009 11.1418 22 11.0988V9.41541C21.9985 9.38232 21.9897 9.34996 21.9742 9.32071C21.9586 9.29145 21.9368 9.26604 21.9101 9.24634C21.8835 9.22663 21.8528 9.21312 21.8203 9.20682C21.7878 9.20051 21.7543 9.20155 21.7222 9.20986C21.2611 9.3432 20.4444 9.52102 19.45 9.58765H19.4444C18.8662 7.53741 17.5711 5.76296 15.7946 4.58734C14.0183 3.41174 11.8787 2.91317 9.76561 3.18237C7.65251 3.45158 5.70635 4.47069 4.28144 6.05415C2.85653 7.63761 2.04764 9.68008 2.00204 11.8098C1.95643 13.9395 2.67715 16.0148 4.03297 17.6577C5.38879 19.3008 7.28955 20.4023 9.38916 20.7616C11.4888 21.1211 13.6477 20.7146 15.4729 19.6161C17.298 18.5176 18.6679 16.8002 19.3333 14.7765L19.45 14.7877C20.2166 14.8154 21.2999 14.5322 21.8611 14.3433C21.9012 14.3303 21.9362 14.3052 21.9611 14.2712C21.9861 14.2374 21.9997 14.1964 22 14.1543V12.471C21.9985 12.4379 21.9897 12.4056 21.9742 12.3763C21.9586 12.347 21.9368 12.3216 21.9101 12.3019C21.8835 12.2822 21.8528 12.2687 21.8203 12.2625C21.7878 12.2561 21.7543 12.2572 21.7222 12.2654C21.3111 12.3821 20.6111 12.5432 19.7555 12.6155V12.621ZM17.5444 12.421C17.5649 12.0785 17.5593 11.7349 17.5277 11.3932L17.211 11.3265C16.0776 11.0766 14.8776 10.8154 14.3276 10.8599C13.8054 10.9043 12.8498 11.1377 12.261 11.2932C12.2303 11.3019 12.1979 11.3032 12.1665 11.2972C12.1353 11.2911 12.1057 11.2779 12.0804 11.2585C12.055 11.2392 12.0345 11.214 12.0205 11.1854C12.0067 11.1567 11.9995 11.1251 11.9998 11.0932V9.26542C11.9998 9.17653 12.0554 9.09875 12.1332 9.07652C12.5999 8.91541 13.5221 8.67651 14.3276 8.67651C14.8166 8.67651 15.5387 8.86541 16.3388 9.06541L16.9499 9.22653C16.3071 7.82654 15.1991 6.69239 13.8145 6.01692C12.4299 5.34145 10.8541 5.16633 9.35507 5.52135C7.85601 5.87636 6.52613 6.73959 5.59156 7.96428C4.65698 9.18897 4.17539 10.6995 4.22864 12.2391C4.2819 13.7788 4.86674 15.2524 5.88372 16.4096C6.90069 17.5669 8.28705 18.3361 9.80709 18.5867C11.3271 18.8372 12.887 18.5536 14.2216 17.7841C15.5562 17.0145 16.5831 15.8066 17.1276 14.3655C16.0166 14.121 14.8666 13.8711 14.3276 13.921C13.8054 13.9599 12.8498 14.1932 12.261 14.3488C12.2303 14.3574 12.1979 14.3587 12.1665 14.3528C12.1353 14.3467 12.1057 14.3335 12.0804 14.3141C12.055 14.2947 12.0345 14.2697 12.0205 14.2409C12.0067 14.2123 11.9995 14.1808 11.9998 14.1489V12.3211C11.9998 12.2321 12.0554 12.1544 12.1332 12.1321C12.5999 11.9711 13.5221 11.7321 14.3276 11.7321C14.8166 11.7321 15.5387 11.921 16.3388 12.121C16.7277 12.2321 17.1388 12.3321 17.5444 12.421Z" fill="white"/>
</svg>

<svg xmlns="http://www.w3.org/2000/svg" width="24" height="24" fill="none" viewBox="0 0 24 24">
    <path fill="#fff" fill-rule="evenodd" d="M19.756 12.621q.03-.447.016-.894c.722-.045 1.606-.278 2.09-.434A.2.2 0 0 0 22 11.1V9.415a.224.224 0 0 0-.18-.208.2.2 0 0 0-.098.003 11.3 11.3 0 0 1-2.272.378h-.006a8.89 8.89 0 1 0-.11 5.189l.116.01c.767.028 1.85-.255 2.411-.444a.2.2 0 0 0 .139-.189v-1.683a.224.224 0 0 0-.18-.209.2.2 0 0 0-.098.003c-.41.117-1.11.278-1.966.35zm-2.212-.2a7 7 0 0 0-.016-1.028l-.317-.067c-1.133-.25-2.333-.51-2.883-.466-.523.044-1.478.278-2.067.433a.205.205 0 0 1-.261-.2V9.265c0-.088.055-.166.133-.188.467-.162 1.39-.4 2.195-.4.489 0 1.21.188 2.01.388l.612.162a6.666 6.666 0 1 0 .178 5.139c-1.111-.245-2.261-.495-2.8-.445-.523.039-1.478.272-2.067.428a.2.2 0 0 1-.18-.035.2.2 0 0 1-.081-.165V12.32c0-.089.055-.167.133-.189.467-.16 1.39-.4 2.195-.4.489 0 1.21.189 2.01.389.39.111.8.211 1.206.3" clip-rule="evenodd"/>
</svg>
